src/objects/clothing/1F454.svg

<?xml version="1.0" encoding="UTF-8"?>
<svg id="emoji" xmlns="http://www.w3.org/2000/svg" viewBox="0 0 72 72">
  <g id="grid">
    <path d="m68,4v64H4V4h64M72,0H0v72h72V0Z" fill="#b3b3b3"/>
    <path d="m12.923,10.9583h46.1539c1.0621,0,1.9231.861,1.9231,1.9231h0v46.1538c0,1.0621-.861,1.9231-1.9231,1.9231H12.9231c-1.0621,0-1.9231-.861-1.9231-1.9231h0V12.8813c0-1.062.861-1.923,1.923-1.923h0Z" fill="none" stroke="#00a5ff" stroke-miterlimit="10" stroke-width=".1"/>
    <rect x="16" y="4" width="40" height="64" rx="2.2537" ry="2.2537" fill="none" stroke="#00a5ff" stroke-miterlimit="10" stroke-width=".1"/>
    <rect x="4" y="16" width="64" height="40" rx="2.2537" ry="2.2537" fill="none" stroke="#00a5ff" stroke-miterlimit="10" stroke-width=".1"/>
    <circle cx="36" cy="36" r="29" fill="none" stroke="#00a5ff" stroke-miterlimit="10" stroke-width=".1"/>
  </g>
  <g id="color">
    <path d="m16.1319,13.7776c-3.292,0-5.9607,2.6687-5.9607,5.9607v38.0785c0,3.292,2.6687,5.9607,5.9607,5.9607h38.0785c3.292,0,5.9607-2.6687,5.9607-5.9607V19.7383c0-3.292-2.6687-5.9607-5.9607-5.9607h-3.1635l-10.3509-5.8139-8.528-.2269-8.2214,2.3051-4.029,3.7356h-3.7857Z" fill="#61b2e4" stroke="#61b2e4" stroke-miterlimit="10" stroke-width="2"/>
    <path d="m20.2061,12.8622s-4.1164,2.6922,7.013,16.4569l3.9887-7.0302-6.8234-8.4142-2.4456-1.9713" fill="#92d3f5" stroke="#92d3f5" stroke-miterlimit="10" stroke-width="2"/>
    <path d="m48.531,11.3682l-2.4093,2.4093-7.1732,8.52,4.6605,7.0331c11.1293-13.7647,6.0484-16.3786,6.0484-16.3786" fill="#92d3f5" stroke="#92d3f5" stroke-miterlimit="10" stroke-width="2"/>
    <polygon points="36.6791 31.6198 33.6717 31.6198 29.6463 63.7776 40.696 63.7776 36.6791 31.6198" fill="#8967aa"/>
    <polygon points="36.6791 24.6625 33.6717 24.6625 32.168 28.1411 33.6717 31.6198 36.6791 31.6198 38.1829 28.1411 36.6791 24.6625" fill="#8967aa"/>
  </g>
  <g id="line">
    <path d="m16.1319,13.7776c-3.292,0-5.9607,2.6687-5.9607,5.9607v38.0785c0,3.292,2.6687,5.9607,5.9607,5.9607h38.0785c3.292,0,5.9607-2.6687,5.9607-5.9607V19.7383c0-3.292-2.6687-5.9607-5.9607-5.9607" fill="none" stroke="#000" stroke-linecap="round" stroke-linejoin="round" stroke-width="2"/>
    <path d="m24.3844,13.8748l7.8234,8.4142-4.9887,8.0302c-11.1293-13.7647-7.3184-17.5417-7.3184-17.5417,0,0,14.3783-13,30.6143,0,0,0,3.8109,3.7769-7.3184,17.5417l-4.9887-8.0302,7.9138-8.5115" fill="none" stroke="#000" stroke-linecap="round" stroke-linejoin="round" stroke-width="2"/>
    <polygon points="36.6791 31.6198 33.6717 31.6198 29.6463 63.7776 40.696 63.7776 36.6791 31.6198" fill="none" stroke="#000" stroke-linecap="round" stroke-linejoin="round" stroke-width="2"/>
    <polygon points="36.6791 24.6625 33.6717 24.6625 32.168 28.1411 33.6717 31.6198 36.6791 31.6198 38.1829 28.1411 36.6791 24.6625" fill="none" stroke="#000" stroke-linecap="round" stroke-linejoin="round" stroke-width="2"/>
  </g>
</svg>

<svg id="emoji" viewBox="0 0 72 72" xmlns="http://www.w3.org/2000/svg">
  <g id="grid">
    <path fill="#b3b3b3" d="M68,4V68H4V4H68m4-4H0V72H72V0Z"/>
    <path fill="none" stroke="#00a5ff" stroke-miterlimit="10" stroke-width="0.1" d="M12.923,10.9583H59.0769A1.9231,1.9231,0,0,1,61,12.8814V59.0352a1.9231,1.9231,0,0,1-1.9231,1.9231H12.9231A1.9231,1.9231,0,0,1,11,59.0352V12.8813A1.923,1.923,0,0,1,12.923,10.9583Z"/>
    <rect x="16" y="4" rx="2.2537" width="40" height="64" fill="none" stroke="#00a5ff" stroke-miterlimit="10" stroke-width="0.1"/>
    <rect x="16" y="4" rx="2.2537" width="40" height="64" transform="translate(72) rotate(90)" fill="none" stroke="#00a5ff" stroke-miterlimit="10" stroke-width="0.1"/>
    <circle cx="36" cy="36" r="29" fill="none" stroke="#00a5ff" stroke-miterlimit="10" stroke-width="0.1"/>
  </g>
  <g id="color">
    <path fill="#61B2E4" stroke="#61B2E4" stroke-miterlimit="10" stroke-width="2" d="M16.1319,13.7776 c-3.292,0-5.9607,2.6687-5.9607,5.9607v38.0785c0,3.292,2.6687,5.9607,5.9607,5.9607h38.0785c3.292,0,5.9607-2.6687,5.9607-5.9607 V19.7383c0-3.292-2.6687-5.9607-5.9607-5.9607h-3.1635L40.696,7.9637L32.168,7.7368l-8.2214,2.3051l-4.029,3.7356H16.1319z"/>
    <path fill="#92D3F5" stroke="#92D3F5" stroke-miterlimit="10" stroke-width="2" d="M20.7299,12.5971 c0,0-4.6402,2.9574,6.4892,16.7221l3.9887-7.0302l-6.8234-8.4142l-3.0873-3.0873"/>
    <path fill="#92D3F5" stroke="#92D3F5" stroke-miterlimit="10" stroke-width="2" d="M48.531,11.3682l-2.4093,2.4093l-7.1732,8.52 l4.6605,7.0331c11.1293-13.7647,6.0484-16.3786,6.0484-16.3786"/>
    <polygon fill="#8967AA" stroke="none" stroke-linecap="round" stroke-linejoin="round" stroke-miterlimit="10" stroke-width="2" points="36.6791,31.6198 33.6717,31.6198 29.6463,63.7776 40.696,63.7776"/>
    <polygon fill="#8967AA" stroke="none" stroke-linecap="round" stroke-linejoin="round" stroke-miterlimit="10" stroke-width="2" points="36.6791,24.6625 33.6717,24.6625 32.168,28.1411 33.6717,31.6198 36.6791,31.6198 38.1829,28.1411"/>
  </g>
  <g id="hair"/>
  <g id="skin"/>
  <g id="skin-shadow"/>
  <g id="line">
    <path fill="none" stroke="#000000" stroke-linecap="round" stroke-linejoin="round" stroke-miterlimit="10" stroke-width="2" d="M16.1319,13.7776c-3.292,0-5.9607,2.6687-5.9607,5.9607v38.0785c0,3.292,2.6687,5.9607,5.9607,5.9607h38.0785 c3.292,0,5.9607-2.6687,5.9607-5.9607V19.7383c0-3.292-2.6687-5.9607-5.9607-5.9607"/>
    <path fill="none" stroke="#000000" stroke-linecap="round" stroke-linejoin="round" stroke-miterlimit="10" stroke-width="2" d="M24.3844,13.8748l7.8234,8.4142l-4.9887,8.0302c-11.1293-13.7647-7.3184-17.5417-7.3184-17.5417s14.3783-13,30.6143,0 c0,0,3.8109,3.7769-7.3184,17.5417l-4.9887-8.0302l7.9138-8.5115"/>
    <polygon fill="none" stroke="#000000" stroke-linecap="round" stroke-linejoin="round" stroke-miterlimit="10" stroke-width="2" points="36.6791,31.6198 33.6717,31.6198 29.6463,63.7776 40.696,63.7776"/>
    <polygon fill="none" stroke="#000000" stroke-linecap="round" stroke-linejoin="round" stroke-miterlimit="10" stroke-width="2" points="36.6791,24.6625 33.6717,24.6625 32.168,28.1411 33.6717,31.6198 36.6791,31.6198 38.1829,28.1411"/>
  </g>
</svg>
